X:116
T:The Cooper o' Stannerton Heugh
Z:Jack Campin, http://www.campin.me.uk/
S:Northumbrian Minstrelsy
M:6/8
L:1/8
K:G
d|gGG BAG|BcB BAG|gGG BAG|ABd e2
d|gGG BAG|BcB BAG|gfe dcB|ABd e2:| 
d|gbg bgb|faf afa|gbg bgb|faf e2
d|gbg bgb|faf afa|gfe dcB|ABd e2:|

